Yaru++/actions/16/node-line.svg

<svg height="16" viewBox="0 0 16 16" width="16" xmlns="http://www.w3.org/2000/svg">
  <g fill="#808080">
    <path d="m2.1699219 12h-.1699219-1v3h3v-3h-.8085938z"/>
    <path d="m9.9537546 5.4455111-6.677735 6.6777349.6777344.736328 6.736329-6.7363285z"/>
    <path d="m13.169922 1h-.169922-1v3h3v-3h-.808594z"/>
    <path d="m14.041083 1.3567928-6.6777356 6.677735.6777345.7363281 6.7363301-6.7363286z"/>
  </g>
</svg>

<svg xmlns="http://www.w3.org/2000/svg" width="16" height="16" version="1.1" viewBox="0 0 16 16">
 <defs>
  <style id="current-color-scheme" type="text/css">
   .ColorScheme-Text { color:#808080; } .ColorScheme-Highlight { color:#5294e2; } .ColorScheme-ButtonBackground { color:#d3dae3; }
  </style>
 </defs>
 <path fill="#808080" class="ColorScheme-Text" d="M 2.1699219,12 H 2 1 v 3 H 4 V 12 H 3.1914062 Z"/>
 <path fill="#808080" class="ColorScheme-Text" d="m 9.9537546,5.4455111 v 0 l -6.677735,6.6777349 v 0 l 0.6777344,0.736328 v 0 0 l 6.736329,-6.7363285 v 0 0 z"/>
 <path fill="#808080" class="ColorScheme-Text" d="M 13.169922,1 H 13 12 v 3 h 3 V 1 h -0.808594 z"/>
 <path fill="#808080" class="ColorScheme-Text" d="m 14.041083,1.3567928 v 0 l -6.6777356,6.677735 v 0 l 0.6777345,0.7363281 v 0 0 L 14.777412,2.0345273 v 0 0 z"/>
</svg>
